X:96
T:Farewell to Limerick or.. . LIT.096
T:Croppys Retreat. LIT.096, The
M:2/4
Q:1/4=125
L:1/8
B:Wm. Litten MS, 1802
Z:Village Music Project 2017 Anne Wride
K:D
B |: A>B AF | A>B d>e | fa ef | dB BA |
A>B AF | A>B d>e | fa ef | d2 d2 :|
|: fa a2 | gb b2 | a>g fe/f/ | dB BA |
fa a2 | gb bc' | d'c' ba | b2 b2 |
fa a2 | gbb2 | a>gf/a/e/f/ | dB BA |
A>B A>F | AB de | f>a e>f | d2d2 :|

